X:198
T:The Black Raven Hornpipe
R:hp
C:Bruce Osborne - Apr.2005
Z:abc by bosborne@kos.net
M:4/4
L:1/8
K:Dmaj
FG|AFDF EDCE|DFEF D2 FG|AFDF AFDF|EDCD E2 FG|\
AFDF EDCE|DFEF D2 FG|AFDF EDCE|D2 DE D2:|
|:FG|AFDF AFDF|Adfe dBAF|fedB AFBF|AFDF E2 FG|\
AFDF AFDF|Adfe dBAF|fedB AFBF|AFEF D2:|
